X:1
T:Wanderers Zuversicht
T:Eugen Karl Petzold
T:Ludwig Tieck
T:Wanderers Zuversicht
T:CPDL - Creative Commons Attribution Non Commercial 3.0
T:CPDL - Creative Commons Attribution Non Commercial 3.0
T:CPDL - Creative Commons Attribution Non Commercial 3.0
T:CPDL - Creative Commons Attribution Non Commercial 3.0
C:Eugen Karl Petzold
Z:Ludwig Tieck
Z:CPDL - Creative Commons Attribution Non Commercial 3.0
%%score [ ( 1 2 ) 3 4 ]
L:1/8
Q:1/4=120
M:2/4
K:C
V:1 treble-8 nm="Tenor"
V:2 treble-8 
V:3 treble-8 nm="Bass 1"
V:4 bass nm="Bass 2"
V:1
"^Tempo di Marcia" z3/2!f! G/ e>B | d>c E>A | G>^F GA | Bc de | f2 z2 | z3/2 G/ f>^c | e>d A>c | %7
w: 1.~Wohl- auf! es|ruft der Son- nen-|schein hin- aus in|Got- tes frei- e|Welt!|geht mun- ter|in das Land hin-|
w: 2.~Du Mensch, du|sit- zest stets da-|heim und sehnst dich|nach der wei- ten|Fern'?|sei frisch und|wand- le durch den|
 B>G ^FG | AB cd | e2 z2 |"^m. v." z3/2 e/ e>e | e>d dd | d4 | d>d!f! de | d>!p!d d>d | %15
w: ein und wan- dert|ü- ber Berg und|Feld!|Es bleibt der|Strom nicht ru- hig|steh'n,|lus- tig rauscht er|fort; hörst du des|
w: Hain und sieh die|schö- ne Frem- de|gern!|Wer weiss, wo|dir dein Glück noch|blüht,|geh' und such' es|nur; der A- bend|
 !>!_e>d d>d | d4 | d>!f!d d^f | g4- | g4- | g4- | g>"^dolce"^f =f=e | f4- | f>f ed | e4- | e2 e2 | %26
w: Win- des munt- res|Wehn?|braust von Ort zu|Ort.|_||* Es reist der|Mond|_ wohl hin und|her|_ die|
w: kommt, der Mor- gen|flieht,|bald be- tritt die|Spur.|_||* Lass Sor- gen|sein|_ und Ban- gig-|keit,|_ ist|
 f2 d2 | e2!<(! dc!<)! |!>(! g4-!>)! | g>"^dolce"^f =f=e | f4- | f>f ed | e4- | e2!p! e2 | _e2 e2 | %35
w: Son- ne|ab und *|auf,|_ guckt ü- ber'n|Berg|_ und geht ins|Meer|_ nie|matt in|
w: doch der|Him- mel *|blau,|_ es wech- selt|Freud'|_ ja stets mit|Leid,|_ dem|Glü- cke|
 _e2 e2 | (!>!_e4 | a2) _e2 | d2 d2 | d2 d2 | (d4 | g2)!f! g2 | g2 G2 | g2 g2 | g2 fe | f2 | f2 | %47
w: ih- rem|Lauf,|_ nie|matt in|ih- rem|Lauf.|_ Es|reist der|Mond wohl|hin und _|her,|die|
w: nur ver-|trau',|_ dem|Glü- cke|nur ver-|trau'.|_ Lass|Sor- gen|sein und|Ban- gig- *|keit,|ist|
 f2 f>f | e2 e2 |!<(! d3 e!<)! | f2 ^f2 | g2 G2 | c2 ^ce | g2 fe | d2 ^d2 | e2 e2 | f2 d2 | g2 z2 | %58
w: Son- ne, die|Son- ne|ab und|auf, guckt|ü- ber'n|Berg und _|geht ins _|Meer nie|matt in|ih- rem|Lauf,|
w: doch, doch der|Him- mel,|Him- mel|blau, es|wech- selt|Freud' ja _|stets mit _|Leid, dem|Glü- cke|nur ver-|trau',|
 !>!a2 z2 | g2 de | .f2 .B2 | c4 |] %62
w: nie|matt in _|ih- rem|Lauf.|
w: dem|Glü- cke _|nur ver-|trau'!|
V:2
 x3/2 G/ e>B | d>c E>A | G>^F GA | GG Bc | d2 x2 | x3/2 G/ f>^c | e>d A>c | B>G ^FG | GG GB | %9
w: |||||||||
w: |||||||||
 c2 x2 | x3/2 c/ c>c | c>c cc | c4 | B>c Bc | B>B B>B | !>!c>c c>c | c4 | B>c Bc | B2 z2 | %19
w: |||||||||Ort,|
w: |||||||||Spur,|
 z3/2 G/ G>G | G4- | G>_e d^c | (d4 | B>)d cB | c4- | c2 c2 | d2 B2 | c2 Bc | d4- | d>_e d^c | %30
w: von Ort zu|Ort.|_ _ _ _|||||||||
w: als- bald die|Spur.|_ _ _ _|||||||||
 (d4 | B>)d cB | c4 | c2 c2 | c2 c2 | c2 c2 | !>!c4- | c2 c2 | c2 c2 | c2 c2 | B4- | B>!f!G A>B | %42
w: |||||||||||* Es reist der|
w: |||||||||||* Lass Sor- gen|
 c2 z2 | z3/2 G/ c>c | (d2 (A2) | d2) | d2 | d2 d>d | c2 c2 | B3 c | d2 ^d2 | e3 e | c>G A>^c | %53
w: Mond|wohl hin und|her, _|_||||||ü- ber'n|Berg und geht ins|
w: sein|und Ban- gig-|keit, _|_||||||wech- selt|Freud' ja stets mit|
 (e2 dA) | (G2 Bc) | c2 c2 | d2 B2 | c2 x2 | !>!f2 x2 | e2 Bc | .d2 .G2 | G4 |] %62
w: Meer _ _|nie _ _|_ _|||||||
w: Leid, _ _|dem _ _|_ _|||||||
V:3
 z3/2!f! G/ e>B | d>c E>A | G>^F GG | GG GG | G2 z2 | z3/2 G/ f>^c | e>d A>c | B>G ^FG | GG GG | %9
w: 1.~Wohl- auf! es|ruft der Son- nen-|schein hin- aus in|Got- tes frei- e|Welt!|geht mun- ter|in das Land hin-|ein und wan- dert|ü- ber Berg und|
w: 2.~Du Mensch, du|sit- zest stets da-|heim und sehnst dich|nach der wei- ten|Fern'?|sei frisch und|wand- le durch den|Hain und sieh die|schö- ne Frem- de|
 G2 z2 |"^m. v." z3/2 G/ G>G | A>A AA | A4 | G>^F!f! GG | G>!p!G G>G | !>!A>A A>A | A4 | %17
w: Feld!|Es bleibt der|Strom nicht ru- hig|steh'n,|lus- tig rauscht er|fort; hörst du des|Win- des munt- res|Wehn?|
w: gern!|Wer weiss, wo|dir dein Glück noch|blüht,|geh' und such' es|nur; der A- bend|kommt, der Mor- gen|flieht,|
 G>!f!^F GA | G2 z2 | z3/2 G/ G>G | G4- | G>"^dolce"G GG | G4- | G>G GG | G4- | G2 G2 | G2 G2 | %27
w: braust von Ort zu|Ort,|von Ort zu|Ort.|_ Es reist der|Mond|_ wohl hin und|her|_ die|Son- ne|
w: bald be- tritt die|Spur,|als- bald die|Spur.|_ Lass Sor- gen|sein|_ und Ban- gig-|keit,|_ ist|doch der|
 G2!<(! GA!<)! |!>(! B4-!>)! | B>"^dolce"G GG | G4- | G>G GG | G4- | G2!p! G2 | A2 A2 | A2 A2 | %36
w: ab und *|auf,|_ guckt ü- ber'n|Berg|_ und geht ins|Meer|_ nie|matt in|ih- rem|
w: Him- mel *|blau,|_ es wech- selt|Freud'|_ ja stets mit|Leid,|_ dem|Glü- cke|nur ver-|
 !>!A4- | A2 A2 | A2 A2 | A2 A2 | G4- | G4- | G>G c>B | c>B A>G | A>A d>^c | d>^c | B>A | B2 B2 | %48
w: Lauf,|_ nie|matt in|ih- rem|Lauf.|_|* Es reist der|Mond wohl hin und|her, Es reist der|Mond wohl|hin und|her, die|
w: trau',|_ dem|Glü- cke|nur ver-|trau'.|_|* Lass Sor- gen|sein und Ban- gig-|keit, Lass Sor- gen|sein und|Ban- gig-|keit, ist|
 G2 G2 |!<(! G3 G!<)! | G2 z2 | z3/2 G/ c>B | c>B A>G | A>A d>^c | d>c B>A | G2 G2 | G2 G2 | %57
w: Son- ne|ab und|auf,|guckt ü- ber'n|Berg und geht ins|Meer, guckt ü- ber'n|Berg und geht ins|Meer, nie|matt im|
w: doch der|Him- mel|blau,|es wech- selt|Freu- de stets mit|Leid, es wech- selt|Freu- de stets mit|Leid, dem|Glück ver-|
 G2 z2 | !>!c2 z2 | .c2 .G2 | B2 F2 | E4 |] %62
w: Lauf,|nie|matt in|ih- rem|Lauf.|
w: trau',|dem|Glü- cke|nur ver-|trau'!|
V:4
 z3/2!f! G,/ E>B, | D>C E,>A, | G,>^F, G,G, | F,E, D,C, | B,,2 z2 | z3/2 G,/ F>^C | E>D A,>C | %7
w: 1.~Wohl- auf! es|ruft der Son- nen-|schein hin- aus in|Got- tes frei- e|Welt!|geht mun- ter|in das Land hin-|
w: 2.~Du Mensch, du|sit- zest stets da-|heim und sehnst dich|nach der wei- ten|Fern'?|sei frisch und|wand- le durch den|
 B,>G, ^F,G, | F,F, E,D, | C,2 z2 |"^m. v." z3/2 C,/ C,>G, | ^F,>F, F,F, | ^F,>!f!D, E,>F, | %13
w: ein und wan- dert|ü- ber Berg und|Feld!|Es bleibt der|Strom nicht ru- hig|steh'n, gar lus- tig|
w: Hain und sieh die|schö- ne Frem- de|gern!|Wer weiss, wo|dir dein Glück noch|blüht, so geh' und|
 G,>A, B, z | z3/2!p! G,/ G,>G, | !>!G,>^F, F,>F, | ^F,>!f!D, E,>F, | G,>!f!A, B,D, | G,,2 z2 | %19
w: rauscht er fort;|hörst du des|Win- des munt- res|Wehn? es braust von|Ort zu Ort, zu|Ort,|
w: such' es nur;|der A- bend|kommt, der Mor- gen|flieht, be- tritt als-|bald die Spur, die|Spur,|
 z3/2 G,,/ G,,>G,, | (G,,4 | G,) z z2 | z3/2 G,,/ B,,>E, | D,2 z2 | z3/2 C,/ E,>A, | G,2 G,2 | %26
w: von Ort zu|Ort.|_|Es reist der|Mond|wohl hin und|her die|
w: als- bald die|Spur.|_|Lass Sor- gen|sein|und Ban- gig-|keit, ist|
 G,,2 G,2 | G,,2!<(! G,2!<)! |!>(! (G,,4!>)! | G,2) z2 | z3/2 G,,/ B,,>E, | D, z z2 | %32
w: Son- ne|ab und|auf,|_|guckt ü- ber'n|Berg|
w: doch der|Him- mel|blau,|_|es wech- selt|Freud'|
 z3/2 C,/ E,>A, | G,2!p! G,2 | G,2 G,2 | G,2 G,2 | !>!^F,4- | F,2 ^F,2 | ^F,2 F,2 | ^F,2 F,2 | %40
w: und geht ins|Meer nie|matt in|ih- rem|Lauf,|_ nie|matt in|ih- rem|
w: ja stets mit|Leid, dem|Glü- cke|nur ver-|trau',|_ dem|Glü- cke|nur ver-|
 =F,4- | F,2!f! F,2 | E,2 E,2 | E,2 E,2 | F,2 F,2 | F,2 | F,2 | G,2 G,>G, | G,2 G,2 | %49
w: Lauf.|_ Es|reist der|Mond wohl|hin und|her,|die|Son- ne, die|Son- ne|
w: trau'.|_ Lass|Sor- gen|sein und|Ban- gig-|keit,|ist|doch, doch der|Him- mel,|
!<(! G,3 G,!<)! | G,2 z2 | C,2 C,>C, | E,2 A,2 | D,3 E, | F,2 ^F,2 | G,2 G,2 | G,2 F,2 | E,2 z2 | %58
w: ab und|auf,|guckt ü- ber'n|Berg und|geht ins|Meer, nie|matt in|ih- rem|Lauf,|
w: Him- mel|blau,|es wech- selt|Freu- de|stets mit|Leid, dem|Glü- cke|nur ver-|trau',|
 !>!F,2 z2 | .G,2 .G,2 | G,2 G,,2 | C,4 |] %62
w: nie|matt in|ih- rem|Lauf.|
w: dem|Glü- cke|nur ver-|trau'!|

